X:1
T:Title
%%score { ( 1 4 ) | ( 2 3 ) }
L:1/8
Q:1/4=92
M:4/4
K:G
V:1 treble nm="Grand Piano"
V:4 treble 
V:2 bass 
V:3 bass 
V:1
 [B,D]2 [B,G]>F [CA]>G [Ec]>B | [Fd]4 [CA]2 z2 | [CD]2 [CA]>^G [DB]>A [Fd]>d | [DB]6 z2 | %4
w: Florence~Williams~Falconer * * * * * *||||
 [B,D]2 [B,G]>F [CA]>G [Ec]>B | [^C_B]4 [D=B]2 z2 | [^CB]2 [CA][CG] [CB]2 AE | %7
w: |||
[M:7/8] A-A-A- A3[K:bass] z |[M:6/8] D[B,D][B,D] [B,D] [B,D]2 | [B,D] [F,CD]2 [F,CE] [F,CD]2 | %10
w: |||
 [F,CD][K:treble][G,D][G,D] [G,DG] [DA]2 | z B2- B z z | [Ec][DB][DA] [F,D] [Dd]2 | %13
w: |||
[M:7/8] ccB [G,E] [Ee]3 |[M:3/4] GG FG EF | z G- G4- | G z z2 z2 |] %17
w: ||||
V:2
 G,,D, .G,>A, .G,,>B, .G,>D | D,,D,F,D, D,,D,F,D, | D,,D, .F,>B, .D,,>C .F,>F | %3
 G,,D,G,D, G,,D,G,D, | G,,D, .G,>A, .G,,>B, .G,>D | G,,E,G,E, G,,D,G,D, | %6
 A,,A,A,A, A,,G,[G,^C][G,C] |[M:7/8] C-C-C- C3 z |[M:6/8] [D,F,C][G,,G,][G,,G,] [G,,G,] [G,,G,]2 | %9
 [G,,G,] A,,2 A,, A,,2 | A,,B,,B,, B,, [B,,G,]2 | z G,2 z3 | [C,G,][D,F,][D,F,] D,/C,/ [B,,G,]2 | %13
[M:7/8] [E,A,E] [E,D]2 E,/D,/ [C,A,]3 |[M:3/4] [E,A,^C][D,B,D] [D,_B,D][D,=B,D] [D,A,=C][D,A,C] | %15
 [D,F,C]G,,- [G,,-E,][G,,-^D,] [G,,=D,]2- | [G,,D,] z z2 z2 |] %17
V:3
 z2 z D, z D, z D, | x8 | z2 z D, z D, z D, | x8 | z2 z D, z D, z D, | x8 | x8 | %7
[M:7/8] [D,F,]- [D,F,]3 z z2 |[M:6/8] x6 | x6 | x6 | [B,,G,] C,2- C,- [C,A,]2 | x6 |[M:7/8] x7 | %14
[M:3/4] x6 | z D, z2 z2 | x6 |] %17
V:4
 x8 | x8 | x8 | x8 | x8 | x8 | x8 |[M:7/8] z z z2[K:bass] D,,2 z |[M:6/8] x6 | x6 | %10
 x[K:treble] x5 | [DB] E2- [^G,E-] [EA]2 | x6 |[M:7/8] x7 |[M:3/4] x6 | AB, CC B,2- | B, z z2 z2 |] %17

